X:4
T:Angl
N:From Salomon Carlstedt's manuscript, Blekinge county, 1813, M167
M:2/4
R:Engelska
S:jonas_liljestrom <consolamentum@spray.se> tradtunes 2005-6-15
K:G
dc|:Bdg2 Bdg2|fac'2 c'afd|Bdg2 ec'ag|gfaf dedc|Bdg2 Bdg2|fac'2
c'afd|Bdg2 bgaf|[1g2g2 g2dc:|[2g2g2 g2b2|:ad'af age^c|d^cd^c
d2b2|ad'af age^c|d^cd^c d^de=c|Bdg2 Bdg2|fac'2 c'afd|Bdg2 bgaf|[1g2g2
g2b2:|[2g2g2 g2z2||
